X:1
T:Pur ti miro
T:L'incoronazione di Poppea
T:Claudio Monteverdi
%%score 1 ( 2 3 ) { ( 4 7 8 ) | ( 5 6 ) }
L:1/8
Q:1/2=83
M:3/1
K:G
V:1 treble nm="Poppea" snm="P"
V:2 treble nm="Nerone" snm="N"
V:3 treble 
V:4 treble nm="Basso \ncontinuo"
V:7 treble 
V:8 treble 
V:5 bass 
V:6 bass 
V:1
 z24 | z24 | z4 z4 B2 c2 d4 A4 z4 | z4 z4 B2 c2 (d2 cB) A4 z4 | z4 z4 B2 c2 A12- | %5
w: ||Pur ti mi- ro,|pur ti mi- ro, * *|pur ti strin-|
 A8 (G4 A8) d2 c2 | B4 G4 z4 z4 z4 D2 D2 | (E2 F2 G2 E2 F2 G2 F2 G2 A2 F2 G2 A2 | %8
w: * go, _ pur ti|strin- go, pur t'an-|no- * * * * * * * * * * *|
 G4) G4 B2 B2 B12- | B4 c4 d4 c8 B4 | B4 B4 B4 B12- | B8 A2 G2 (F8 G4) | G8 B2 c2 d4 A4 z4 | %13
w: * do, più non pe-|* no, non pe- *|no, più non pe-|* no, non mo- *|ro, o mia vi- ta,|
 z4 z2 B2 ^c2 d2 d8 (c4 | d4) (d2 c2) (B2 A2) B4 B4 z4 | z4 (e2 d2) (c2 B2) B4 A6 (A2 | G24) | %17
w: o mio te- so- ro.|_ o _ mia _ vi- ta,|o _ mio _ te- so- ro.|_|
 z24 || z4[Q:1/4=270]"^Presto" d4 c4 B4 z4 z4 | z4 c4 B4 A4 z4 z4 | z4 c4 d4 e4 z4 z4 | %21
w: |Io son tua,|spe- me mia,|dil- lo dì,|
 z4 A4 G4 F4 z4 z4 | z4 e4 B4 ^c4 z4 z4 | z4 d4 =c4 B4 z4 z4 | z4 c4 B4 A4 z4 z4 | %25
w: spe- me mia,|dil- lo di,|l'i- dol mio,|tu sei pur,|
 z4 c4 G4 A4 z4 z4 | e4 d4 e4 ^c4 B4 c4 | d4 z4 z4 z4 G4 D4 | E4 z4 z4 F4 E4 F4 | G4 A8 B4 ^c8 | %30
w: sì, mio ben,|mia vi- ta, sì, sì, sì,|sì, sì mio|cor, mia vi- ta,|sì, sì, sì, sì,|
 d8 z4 z4 d4 =c4 | B4 B4 A4 G8 B4 | B4 (A4 B4) G8 z4 | z4 d4 c4 B4 z4 z4 | z4 c4 B4 A4 z4 z4 | %35
w: sì, sì, mio|ben, sì, mio cor, mia|vi- ta, _ sì,|io son tua,|spe- me mia,|
 z4 c4 d4 e4 z4 z4 | z4 A4 G4 F4 z4 z4 | z4 e4 B4 ^c4 z8 | z4 d4 =c4 B4 z4 z4 | z4 c4 B4 A4 z4 z4 | %40
w: dil- lo dì,|spe- me mia,|dil- lo dì,|l'i- dol mio,|tu sei pur,|
 z4 c4 G4 A4 z4 z4 | e4 d4 e4 ^c4 B4 c4 | d4 z4 z4 z4 G4 D4 | E4 z4 z4 F4 E4 F4 | G4 A8 B4 ^c8 | %45
w: sì, mio ben,|mia vi- ta, sì, sì, sì,|sì, sì, mio|cor, mia vi- ta,|sì, sì, sì, sì,|
 d8 z4 z4 d4 =c4 | B4 B4 A4 G8 B4 |[M:3/2] B4 (A4 B4) | %48
w: sì, sì, mio|ben, sì, mio cor, mia|vi- ta, _|
[M:3/1][Q:1/4=166]"^Adagio" G8 B2 c2 d4 A4 z4 | z4 z4 B2 c2 (d2 cB A4) z4 | z4 z4 B2 c2 A12- | %51
w: sì, pur ti mi- ro,|pur ti mi- ro, _ _|pur ti strin-|
 PA8 (G4 A8) d2 c2 | B4 G4 z4 z4 z4 D2 D2 | (E2 F2 G2 E2 F2 G2 F2 G2 A2 F2 G2 A2 | %54
w: * go, _ pur ti|strin- go, pur t'an-|no- * * * * * * * * * * *|
 G4) G4 B2 B2 B12- | B4 c4 d4 (c8 B4) | B4 B4 B4 B12- | B8 A2 G2 (F8 G4) | G8 B2 c2 d4 A4 z4 | %59
w: * do, più non pe-|* no, non pe- *|no, più non mo-|* ro, non mo- *|ro, o mia vi- ta,|
 z4 z2 B2 ^c2 d2 d8 (c4 | d4) (d2 =c2) (B2 A2) B4 B4 z4 ||[M:4/4] z4 z e/d/ cB | B2 A4 (A2 | %63
w: o mio te- so- ro.|_ o _ mia _ vi- ta,|o _ mio _|te- so- ro.|
 !fermata!G8) |] %64
w: _|
V:2
 z24 | z24 | z4 z4 z4 z4 z4 A2 B2 | c4 G4 z4 z4 z4 G2 A2 | (B2 cB A4) z4 z4 z4 D2 D2 | %5
w: ||Pur ti|go- do, pur ti|go- do, _ _ pur t'an-|
 (E2 F2 G2 E2 F2 G2 F2 G2 A2 F2 G2 A2 | G4) G4 B2 c2 A12- | A8 G4 A8 d2 c2 | B4 G4 z4 z4 G4 G4 | %9
w: no- * * * * * * * * * * *|* do, pur ti strin-|* go, _ pur ti|strin- go, più non|
 (G12- G4 F4 G4) | G4 z4 z4 z4 c4 c4 | (c12- c8 B4) | B8 z4 z4 z4 G2 A2 | B4 G2 A2 G2 F2 TE8 (E4 | %14
w: mo- * * *|no, più non|pe- * *|no, o mia|vi- ta, o mio te- so- ro.|
 D8) z4 z4 (G2 =F2) (E2 D2) | E4 E2 E2 ^F2 G2 G8 (F4 | G24) | z24 || z4 z4 z4 z4 G4 =F4 | %19
w: _ o _ mia _|vi- ta, o mio te- so- ro.|_||tuo son|
 E4 z4 z4 z4 d4 c4 | B4 z4 z4 z4 e4 d4 | ^c4 z4 z4 z4 B4 A4 | ^G4 z4 z4 z4 A4 =G4 | %23
w: io, dil- lo|dì, tu sei|pur, l'i- dol|mio, tu sei|
 F4 z4 z4 z4 G4 =F4 | E4 z4 z4 z4 d4 c4 | B4 z4 z4 z4 d4 A4 | B4 z4 z4 A4 G4 A4 | F4 d4 A4 B4 z8 | %28
w: pur, dil- lo|dì, l'i- dol|mio, sì, mio|cor, mia vi- ta,|sì, sì mio ben,|
 c4 B4 c4 A4 B4 A4 | G4 z4 z4 G4 A8 | F8 z4 z4 B4 A4 | G4 G4 !courtesy!^F4 E8 G4 | %32
w: mia vi- ta, sì, sì, sì,|sì, sì, sì,|sì, sì, mio|ben, sì, mio cor, mia|
 G4 (F4 G4) G8 z4 | z4 z4 z4 z4 G4 =F4 | E4 z4 z4 z4 d4 c4 | B4 z4 z4 z4 e4 B4 | %36
w: vi- ta, _ sì,|tuo son|io, dil- lo|dì, tu sei|
 ^c4 z4 z4 z4 B4 A4 | ^G4 z4 z4 z4 A4 =G4 | F4 z4 z4 z4 G4 =F4 | E4 z4 z4 z4 d4 c4 | %40
w: pur, l'i- dol|mio, tu sei|pur, dil- lo|dì, l'i- dol|
 B4 z4 z4 z4 d4 A4 | B4 z4 z4 A4 G4 A4 | F4 d4 A4 B4 z4 z4 | c4 B4 c4 A4 B4 A4 | G4 z4 z4 G4 A8 | %45
w: mio, sì, mio|cor, mia vi- ta,|sì, sì, mio ben,|mia vi- ta, sì, sì, sì,|sì, sì, sì,|
 F8 z4 z4 B4 A4 | G4 G4 F4 E8 G4 |[M:3/2] G4 (F4 G4) |[M:3/1] G12 z4 z4 A2 B2 | %49
w: sì, sì, mio|ben, sì, mio cor, mia|vi- ta, _|sì, pur ti|
 c4 G4 z4 z4 z4 G2 A2 | (B2 cB A4) z4 z4 z4 D2 D2 | (E2 F2 G2 E2 F2 G2 F2 G2 A2 F2 G2 A2 | %52
w: go- do, pur ti|go- do, _ _ pur t'an-|no- * * * * * * * * * * *|
 G4) G4 B2 c2 A12- | A8 (G4 A8) d2 c2 | B4 G4 z4 z4 G4 G4 | (G12- G4 F4 G4) | G4 z4 z4 z4 c4 c4 | %57
w: * do, pur ti strin-|* go, _ pur ti|strin- go, più non|mo- * * *|ro, più non|
 (c12- c8 B4) | B8 z4 z4 z4 G2 A2 | B4 G2 A2 G2 F2 E8 (E4 | D8) z4 z4 (G2 =F2) (E2 D2) || %61
w: pe- * *|ro, o mia|vi- ta, o mio te- so- ro.|_ o _ mia _|
[M:4/4] E4 E E F G | G6 (F2 | !fermata!G8) |] %64
w: vi- ta, o mio te-|so- ro.|_|
V:3
 x24 | x24 | x24 | x24 | B2 BA G4 x16 | x24 | x24 | x24 | x24 | x24 | x24 | x24 | x24 | x24 | x24 | %15
 x24 | x24 | x24 || x24 | x24 | x24 | x24 | x24 | x24 | x24 | x24 | x24 | x24 | x24 | x24 | x24 | %31
 x24 | x24 | x24 | x24 | x24 | x24 | x24 | x24 | x24 | x24 | x24 | x24 | x24 | x24 | x24 | x24 | %47
[M:3/2] x12 |[M:3/1] x24 | x24 | B2 BA G4 x16 | x24 | x24 | x24 | x24 | x24 | x24 | x24 | x24 | %59
 x24 | x24 ||[M:4/4] x8 | x8 | x8 |] %64
V:4
 D24 | C12 D12 | D24 | C12 D12 | D24 | G12 [DF]12 | [DB]12- [DB]12 | G12 F12 | B12 B12- | %9
 B4 c4 d4 c12 | B12 B12- | B8 A2 G2 F12 | G12 A12 | B8 d4- d8 ^c4 | [Fd]12 [GBd]12 | e12 d12- | %16
 d12 D12 | C12 D12- || D4 B4 c4 d12 | e12 A4 d4 c4 | B12- B4 e4 d4 | ^c12 [FB]8 A4 | %22
 [E^G]12 A8 =G4 | F12 G8 =F4 | E12 F12 | G12 A12 | B12 ^c12 | d12- d4 d8 | e8 c4 A12 | B8 A4 G12 | %30
 F12 z4 G8 | G8 !courtesy!^F4 E8 G4- | G4 F4 G4 G12 | z4 B4 c4 d12 | e12 A4 d4 c4 | B12- B4 e4 d4 | %36
 ^c12 [FB]8 A4 | ^G12 A8 =G4 | F12 G8 =F4 | E12 F12 | G12 A12 | B12 ^c12 | d12- d4 d8 | e8 c4 A12 | %44
 B8 A4 G12 | F8 z4 z4 G8 | G8 F4 E8 G4 |[M:3/2] G4 F4 G4 |[M:3/1] G12 D12 | C12 D12 | D24 | %51
 G12 [DF]12 | [D-B]12 [DA]12 | G12 F12 | B12 B12- | B4 c4 d4 c12 | B12 B12- | B8 A2 G2 F12 | %58
 G12 A12 | B8 d4- d8 ^c4 | [Fd]12 [GBd]12 ||[M:4/4] e8 | d8 | !fermata!d8 |] %64
V:5
 [G,B,]12 [^F,A,]12 | [E,G,]12 ^F,8 G,2 A,2 | [G,B,]12 [^F,A,]12 | [E,G,]12 ^F,8 G,2 A,2 | %4
 [G,B,]12 [F,A,]12 | B,8 C4 D,12 | G,12 F,12 | E,12 D,12 | G,12 F,12 | E,12 D,12 | G,12 F,12 | %11
 E,12 D,12 | G,12 F,12 | G,12 A,12 | D,12 G,12 | C,12 D,12 | G,12 [F,A,]12 | %17
 [E,G,]12 F,8 G,2 A,2 || B,4 G,4 A,4 B,12 | C12 D12 | G,12 ^G,12 | A,12 B,4 B,,8 | E,12 A,,12 | %23
 [D,A,]12 [G,,G,-]12 | G,4 A,8- A,4 B,8- | B,4 C8- C4 D8- | D8 E4- E4 x8 | D,12 G,4 B,,8 | %28
 C,12 D,12 | G,,4 F,,8 E,,12 | D,12 z4 B,,8 | E,4 B,,8 C,8 G,,4- | G,,4 D,,8 G,,12 | %33
 z4 G,4 A,4 B,12 | C12 D12 | G,12 ^G,12 | A,12 B,4 B,,8 | E,12 A,,12 | A,12 G,12- | %39
 G,4 A,8- A,4 B,8- | B,4 C8- C4 D8- | D4 E8- E4[I:staff -1] A4 G4 |[I:staff +1] D,12 G,4 B,,8 | %43
 A,,12 D,12 | G,4 F,8 E,12 | D,8 z4 z4 B,,8 | E,4 B,,8 C,8 G,,4 |[M:3/2] D,12 | %48
[M:3/1] G,12 [^F,A,]12 | [E,G,]12 ^F,8 G,2 A,2 | [G,B,]12 [F,A,]12 | B,8 C4 D,12 | G,12 F,12 | %53
 E,12 D,12 | G,12 F,12 | E,12 D,12 | G,12 F,12 | E,12 D,12 | G,12 F,12 | G,12 A,12 | D,12 G,12 || %61
[M:4/4] C,8 | D,8 | !fermata!G,,8 |] %64
V:6
 x24 | x12 D,12 | x24 | x12 D,12 | x24 | E,12 x12 | x24 | x24 | x24 | x24 | x24 | x24 | x24 | x24 | %14
 x24 | x24 | x24 | x12 D,12 || G,,4 x4 x16 | x24 | x24 | x24 | x24 | x24 | C,12 D,12 | %25
 G,4 E,8 F,12 | G,12 A,8 A,,4 | x24 | x24 | x24 | x24 | x24 | x24 | x24 | x24 | x24 | x24 | x24 | %38
 D,12 G,,12 | C,12 D,12 | G,4 E,8 F,12 | G,12 A,4 A,,8 | x24 | x24 | x24 | x24 | x24 |[M:3/2] x12 | %48
[M:3/1] x24 | x8 x4 D,12 | x24 | E,12 x8 x4 | x24 | x24 | x24 | x24 | x24 | x24 | x24 | x24 | %60
 x24 ||[M:4/4] x8 | x8 | x8 |] %64
V:7
 x24 | x24 | x24 | x24 | x24 | x24 | x24 | B,8 C4 D12 | D12 G12- | G12- G8 F4 | G12 C12- | %11
 C12- C12 | B,12 D12- | D4 G4 F4 E12 | x24 | c12 B4 A8 | [GB]12 x12 | x24 || x4 G8- G12 | G12 F12 | %20
 D12 E12- | E12 E4 ^D8 | B,12 [^CE]12 | D8 =C4 B,12 | C12 z12 | x24 | x12 x4 A4 G4 | %27
 F4 G4 A4 B4 G8 | G12 F12 | D12- D8 ^C4 | D12 x4 D8 | B,8 A,4 G,8 B,4- | B,4 A,4 B,4 B,12 | %33
 x4 G8- G12 | G12 G12 | D12 E12- | E12 E4 ^D8 | [B,E]12 [^CE]12 | D12 D12 | C12 z12 | x24 | x24 | %42
 F4 G4 A4 B4 G8 | G12 F12 | D12- D8 ^C4 | D8 x8 D8 | B,8 A,4 G,8 B,4 |[M:3/2] B,4 A,4 B,4 | %48
[M:3/1] B,12 x8 x4 | x24 | x24 | x24 | x24 | B,8 C4 D12 | D12 G12- | G12- G8 F4 | G12 C12- | %57
 C12- C12 | B,12 D12- | D4 G4 F4 E12 | x24 ||[M:4/4] c8 | B4 A4 | !fermata!B8 |] %64
V:8
 x24 | x24 | x24 | x24 | x24 | x24 | x24 | x24 | x24 | x24 | x24 | x24 | x24 | x24 | x24 | %15
 G12 G8 F4 | x24 | x24 || x24 | x24 | x24 | x24 | x24 | x24 | x24 | x24 | x24 | x24 | x24 | x24 | %30
 x24 | x24 | x24 | x24 | x24 | x24 | x24 | x24 | x24 | x24 | x24 | x24 | x24 | x24 | x24 | x24 | %46
 x24 |[M:3/2] x12 |[M:3/1] x24 | x24 | x24 | x24 | x24 | x24 | x24 | x24 | x24 | x24 | x24 | x24 | %60
 x24 ||[M:4/4] G8 | G6 F2 | !fermata!G8 |] %64

